X:23
T: TANZ TANZ BUTZEMANN
N: E0005A
O: Europa, Mitteleuropa, Deutschland, Erfurt
R: Sage, Maerchen -, Zauber - Lied
M: 2/4
L: 1/16
K: G
 | G4B4 | d3ed2
c2 | B2B2A2A2 | G4z4
G2G2G2G2 | A2D2D2D2
G2G2G2G2 | A2D2D2D2
G4B4 | d3dd2
c2 | B2B2A2A2 | G4z4

